X:102
T:A new Strathspey Reel
B:CPC v3, p23
M:C
L:1/8
Q:1/4=92 "Slow"
K:A Minor
G<G    G>A  c<A    A2  | c2    g>c a>ce<g  |E>Gc>G     A<a    a2   |g>de>c  a>GA<c:|
f>ga>g      g<e    e2  |(e<d)d>e   g>ce<g  |E>Gc>G     A<aa>g      |c'>ga>e g>GA<c:|
GG/G/ (G>A) cA/A/ (A>c)| cc/c/ g>c a>c(e<g)|EE/E/  G>g FF/F/ (a>c')|g>de>c  a>GA<c:|
ff/f/ (a>g) ge/e/ (e>d)| dc/c/ g>c a>ce<g  |E>Gc>G     A>a    a2   |g>de>c  a>GA<c:|

